; G-Code generated by Simplify3D(TM) Version 2.1.0
; 7ÔÂ 9, 2017 at 9:07:18 ÏÂÎç
; Settings Summary
;   processName,Process1
;   applyToModels,chenhan
;   printMaterial,
;   printQuality,
;   extruderName,Primary Extruder
;   extruderToolheadNumber,0
;   extruderDiameter,0.3
;   extruderAutoWidth,0
;   extruderWidth,0.33
;   extrusionMultiplier,0.5
;   extruderUseRetract,1
;   extruderRetractionDistance,0.8
;   extruderExtraRestartDistance,0
;   extruderRetractionZLift,0
;   extruderRetractionSpeed,400
;   extruderUseCoasting,0
;   extruderCoastingDistance,0.2
;   extruderUseWipe,0
;   extruderWipeDistance,5
;   primaryExtruder,0
;   layerHeight,0.25
;   topSolidLayers,3
;   bottomSolidLayers,3
;   perimeterOutlines,2
;   printPerimetersInsideOut,1
;   startPointOption,2
;   startPointOriginX,0
;   startPointOriginY,0
;   startPointOriginZ,300
;   sequentialIslands,0
;   spiralVaseMode,0
;   firstLayerHeightRatio,0.9
;   firstLayerUnderspeed,0.7
;   useRaft,0
;   raftLayers,3
;   raftOffset,3
;   raftInfill,85
;   disableRaftBaseLayers,0
;   useSkirt,1
;   skirtLayers,1
;   skirtOutlines,2
;   skirtOffset,4
;   infillExtruder,0
;   externalInfillPattern,Rectilinear
;   infillPercentage,30
;   outlineOverlapPercentage,15
;   minInfillLength,5
;   infillLayerInterval,1
;   randomInfillStartPoint,1
;   infillAngles,45,-45
;   generateSupport,0
;   supportExtruder,0
;   supportInfill,30
;   supportExtraInflation,0
;   supportLayerInterval,1
;   supportHorizontalPartOffset,0.3
;   supportUpperSeparationLayers,1
;   supportLowerSeparationLayers,1
;   supportGridSpacing,4
;   maxOverhangAngle,45
;   supportAngles,0
;   temperatureName,Primary Extruder
;   temperatureNumber,0
;   temperatureSetpointCount,1
;   temperatureSetpointLayers,1
;   temperatureSetpointTemperatures,190
;   temperatureStabilizeAtStartup,1
;   temperatureHeatedBed,0
;   temperatureRelayBetweenLayers,0
;   temperatureRelayBetweenLoops,0
;   fanLayers,1,1
;   fanSpeeds,0,100
;   blipFanToFullPower,0
;   adjustSpeedForCooling,1
;   minSpeedLayerTime,15
;   minCoolingSpeedSlowdown,20
;   increaseFanForCooling,0
;   minFanLayerTime,45
;   maxCoolingFanSpeed,100
;   increaseFanForBridging,0
;   bridgingFanSpeed,100
;   use5D,1
;   relativeEdistances,0
;   allowEaxisZeroing,1
;   includeM10123,0
;   stickySupport,1
;   detectArcs,0
;   arcReplaceG2G3,0
;   arcRadialCompensation,1
;   gcodeXoffset,0
;   gcodeYoffset,0
;   gcodeZoffset,0
;   overrideMachineDefinition,1
;   machineTypeOverride,0
;   strokeXoverride,240
;   strokeYoverride,205
;   strokeZoverride,235
;   originOffsetXoverride,0
;   originOffsetYoverride,0
;   originOffsetZoverride,0
;   homeXdirOverride,-1
;   homeYdirOverride,-1
;   homeZdirOverride,-1
;   flipXoverride,1
;   flipYoverride,-1
;   flipZoverride,1
;   startingGcode,G28 ; home all axes
;   layerChangeGcode,
;   toolChangeGcode,
;   endingGcode,M104 S0 ; turn off extruder,M140 S0 ; turn off bed,M84 ; disable motors
;   createX3G,0
;   celebration,0
;   celebrationSong,Random Song
;   postProcessing,
;   defaultSpeed,2000
;   outlineUnderspeed,0.5
;   supportUnderspeed,0.8
;   rapidXYspeed,4800
;   rapidZspeed,1000
;   minBridgingArea,50
;   bridgingExtrusionMultiplier,1
;   bridgingSpeedMultiplier,1
;   filamentDiameter,1.75
;   useMinPrintHeight,0
;   minPrintHeight,0
;   useMaxPrintHeight,0
;   maxPrintHeight,0
;   overlapRemoval,0
;   overlapRemovalPercentage,0.3
;   useDiaphragm,0
;   diaphragmLayerInterval,20
;   robustSlicing,1
;   mergeAllIntoSolid,0
;   onlyRetractWhenCrossingOutline,1
;   retractBetweenLayers,1
;   useRetractionMinTravel,0
;   retractionMinTravel,3
;   useRetractionOozeRate,0
;   retractionOozeRate,100
;   onlyWipeOutlines,1
G1 X57.505 Y10.495 E0.8062 F1500
G90 ; use absolute coordinates
M82 ; absolute extrusion distances
G21 ; set units to millimeters
M106 S0
M104 S190 T0
M109 S190 T0
G28 ; home all axes
G92 E0
G1 E-0.8 F400
; layer 1, Z = 0.225
; layer 2, Z = 0.475
M106 S255
; layer 3, Z = 0.725
; layer 4, Z = 0.975
; layer 5, Z = 1.225
; layer 6, Z = 1.475
; layer 7, Z = 1.725
; layer 8, Z = 1.975
; layer 9, Z = 2.225
T0
; tool H0.25 W0.33
G0 X10.495 Y10.495 F4800
G0 Z2.225 F1000
G1 E0 F120
G92 E0
G1 X57.505 Y10.495 E0.8062 F1500
G1 X57.505 Y47.583 E1.4423
G1 X57.486 Y48.111 E1.4513
G1 X57.441 Y48.633 E1.4603
G1 X57.368 Y49.151 E1.4693
G1 X57.268 Y49.662 E1.4782
G1 X57.067 Y50.425 E1.4917
G1 X56.808 Y51.167 E1.5052
G1 X56.491 Y51.889 E1.5187
G1 X56.25 Y52.35 E1.5277
G1 X55.986 Y52.799 E1.5366
G1 X55.542 Y53.451 E1.5501
G1 X55.049 Y54.066 E1.5636
G1 X54.697 Y54.45 E1.5726
G1 X54.326 Y54.815 E1.5815
G1 X53.728 Y55.33 E1.595
G1 X53.094 Y55.794 E1.6085
G1 X52.426 Y56.208 E1.622
G1 X51.728 Y56.567 E1.6354
G1 X51.004 Y56.871 E1.6489
G1 X50.258 Y57.117 E1.6624
G1 X49.491 Y57.305 E1.6759
G1 X48.979 Y57.395 E1.6848
G1 X48.462 Y57.458 E1.6938
G1 X47.666 Y57.504 E1.7074
G1 X47.59 Y57.505 E1.7088
G1 X20.417 Y57.505 E2.1748
G1 X19.889 Y57.486 E2.1838
G1 X19.371 Y57.441 E2.1927
G1 X18.588 Y57.32 E2.2063
G1 X18.08 Y57.208 E2.2153
G1 X17.575 Y57.068 E2.2242
G1 X17.078 Y56.901 E2.2332
G1 X16.591 Y56.709 E2.2422
G1 X16.114 Y56.492 E2.2512
G1 X15.652 Y56.252 E2.2601
G1 X14.975 Y55.841 E2.2737
G1 X14.549 Y55.542 E2.2826
G1 X14.136 Y55.22 E2.2916
G1 X13.741 Y54.876 E2.3006
G1 X13.364 Y54.512 E2.3096
G1 X13.007 Y54.129 E2.3186
G1 X12.672 Y53.731 E2.3275
G1 X12.206 Y53.094 E2.341
G1 X11.792 Y52.426 E2.3545
G1 X11.433 Y51.728 E2.368
G1 X11.129 Y51.004 E2.3814
G1 X10.883 Y50.258 E2.3949
G1 X10.696 Y49.495 E2.4084
G1 X10.57 Y48.719 E2.4218
G1 X10.505 Y47.937 E2.4353
G1 X10.495 Y10.495 E3.0774
G0 X18.735 Y43.366 F4800
G92 E0
G1 X18.257 Y43.604 E0.0092 F1500
G1 X18.011 Y43.757 E0.0141
G1 X17.585 Y44.078 E0.0233
G1 X17.37 Y44.273 E0.0282
G1 X17.009 Y44.667 E0.0374
G1 X16.817 Y44.922 E0.0429
G1 X16.662 Y45.159 E0.0477
G1 X16.408 Y45.637 E0.057
G1 X16.214 Y46.144 E0.0663
G1 X16.129 Y46.451 E0.0718
G1 X16.071 Y46.729 E0.0767
G1 X16.011 Y47.259 E0.0858
G1 X16.005 Y47.55 E0.0908
G1 X16.047 Y48.119 E0.1006
G1 X16.097 Y48.406 E0.1056
G1 X16.237 Y48.928 E0.1149
G1 X16.443 Y49.437 E0.1243
G1 X16.703 Y49.907 E0.1335
G1 X16.776 Y50.017 E0.1358
G1 X16.939 Y50.244 E0.1405
G1 X17.295 Y50.653 E0.1498
G1 X17.697 Y51.015 E0.1591
G1 X17.923 Y51.183 E0.164
G1 X18.159 Y51.338 E0.1688
G1 X18.637 Y51.592 E0.1781
G1 X19.144 Y51.786 E0.1874
G1 X19.451 Y51.871 E0.1929
G1 X19.729 Y51.929 E0.1977
G1 X20.268 Y51.99 E0.207
G1 X20.846 Y51.982 E0.2169
G1 X21.135 Y51.95 E0.2219
G1 X21.658 Y51.844 E0.2311
G1 X21.935 Y51.76 E0.236
G1 X22.437 Y51.557 E0.2453
G1 X22.917 Y51.291 E0.2547
G1 X23.355 Y50.972 E0.264
G1 X23.567 Y50.786 E0.2689
G1 X23.768 Y50.587 E0.2737
G1 X24.138 Y50.142 E0.2836
G1 X24.429 Y49.684 E0.2929
G1 X24.559 Y49.433 E0.2978
G1 X24.686 Y49.14 E0.3033
G1 X24.853 Y48.624 E0.3126
G1 X24.956 Y48.092 E0.3219
G1 X24.985 Y47.804 E0.3268
G1 X24.99 Y47.263 E0.3361
G1 X24.927 Y46.717 E0.3455
G1 X24.801 Y46.191 E0.3548
G1 X24.707 Y45.916 E0.3598
G1 X24.472 Y45.395 E0.3696
G1 X24.332 Y45.15 E0.3744
G1 X24.176 Y44.913 E0.3793
G1 X23.814 Y44.462 E0.3892
G1 X23.424 Y44.085 E0.3985
G1 X23.203 Y43.908 E0.4034
G1 X22.941 Y43.725 E0.4089
G1 X22.469 Y43.458 E0.4182
G1 X21.962 Y43.248 E0.4276
G1 X21.433 Y43.102 E0.437
G1 X20.89 Y43.021 E0.4464
G1 X20.341 Y43.007 E0.4558
G1 X19.802 Y43.059 E0.4651
G1 X19.518 Y43.113 E0.4701
G1 X19.005 Y43.261 E0.4792
G1 X18.735 Y43.366 E0.4842
G0 X44.429 Y44.217 F4800
G92 E0
G1 X44.061 Y44.605 E0.0092 F1500
G1 X43.886 Y44.826 E0.014
G1 X43.726 Y45.058 E0.0188
G1 X43.459 Y45.529 E0.0281
G1 X43.252 Y46.029 E0.0374
G1 X43.168 Y46.299 E0.0422
G1 X43.101 Y46.573 E0.0471
G1 X43.021 Y47.108 E0.0564
G1 X43.007 Y47.657 E0.0658
G1 X43.059 Y48.196 E0.0751
G1 X43.113 Y48.48 E0.08
G1 X43.262 Y49.001 E0.0893
G1 X43.476 Y49.506 E0.0987
G1 X43.747 Y49.975 E0.108
G1 X43.914 Y50.211 E0.113
G1 X44.261 Y50.617 E0.1221
G1 X44.468 Y50.82 E0.1271
G1 X44.889 Y51.16 E0.1364
G1 X45.348 Y51.447 E0.1457
G1 X45.6 Y51.574 E0.1505
G1 X45.859 Y51.685 E0.1553
G1 X46.367 Y51.85 E0.1645
G1 X46.65 Y51.914 E0.1695
G1 X47.186 Y51.985 E0.1788
G1 X47.728 Y51.99 E0.188
G1 X48.016 Y51.966 E0.193
G1 X48.542 Y51.873 E0.2022
G1 X48.815 Y51.799 E0.207
G1 X49.046 Y51.721 E0.2112
G1 X49.541 Y51.506 E0.2204
G1 X50.008 Y51.231 E0.2297
G1 X50.243 Y51.062 E0.2347
G1 X50.646 Y50.712 E0.2439
G1 X50.846 Y50.502 E0.2488
G1 X51.183 Y50.079 E0.2581
G1 X51.466 Y49.617 E0.2674
G1 X51.594 Y49.357 E0.2724
G1 X51.785 Y48.859 E0.2815
G1 X51.864 Y48.58 E0.2865
G1 X51.961 Y48.055 E0.2956
G1 X51.987 Y47.774 E0.3005
G1 X51.995 Y47.492 E0.3053
G1 X51.963 Y46.96 E0.3145
G1 X51.919 Y46.673 E0.3194
G1 X51.788 Y46.148 E0.3287
G1 X51.594 Y45.643 E0.338
G1 X51.466 Y45.383 E0.343
G1 X51.187 Y44.928 E0.3521
G1 X51.013 Y44.696 E0.3571
G1 X50.651 Y44.293 E0.3664
G1 X50.243 Y43.938 E0.3757
G1 X50.008 Y43.769 E0.3806
G1 X49.541 Y43.494 E0.3899
G1 X49.038 Y43.275 E0.3993
G1 X48.519 Y43.121 E0.4086
G1 X48.234 Y43.065 E0.4136
G1 X47.696 Y43.008 E0.4229
G1 X47.155 Y43.018 E0.4321
G1 X46.867 Y43.049 E0.4371
G1 X46.344 Y43.156 E0.4463
G1 X46.066 Y43.239 E0.4512
G1 X45.564 Y43.442 E0.4605
G1 X45.084 Y43.708 E0.4699
G1 X44.646 Y44.026 E0.4792
G1 X44.429 Y44.217 E0.4842
G0 X10.165 Y10.165 F4800
G92 E0
G1 X57.835 Y10.165 E0.8175 F1000
G1 X57.835 Y47.589 E1.4593
G1 X57.816 Y48.131 E1.4686
G1 X57.769 Y48.67 E1.4779
G1 X57.693 Y49.206 E1.4872
G1 X57.59 Y49.736 E1.4965
G1 X57.383 Y50.522 E1.5104
G1 X57.116 Y51.288 E1.5243
G1 X56.788 Y52.031 E1.5382
G1 X56.539 Y52.511 E1.5475
G1 X56.265 Y52.976 E1.5568
G1 X55.808 Y53.647 E1.5707
G1 X55.299 Y54.281 E1.5846
G1 X54.934 Y54.679 E1.5939
G1 X54.549 Y55.058 E1.6032
G1 X53.934 Y55.588 E1.6171
G1 X53.279 Y56.068 E1.631
G1 X52.589 Y56.495 E1.6449
G1 X51.868 Y56.867 E1.6588
G1 X51.119 Y57.18 E1.6728
G1 X50.349 Y57.435 E1.6867
G1 X49.559 Y57.628 E1.7006
G1 X49.028 Y57.721 E1.7099
G1 X48.492 Y57.787 E1.7191
G1 X47.678 Y57.833 E1.7331
G1 X47.592 Y57.835 E1.7346
G1 X20.411 Y57.835 E2.2007
G1 X19.869 Y57.816 E2.21
G1 X19.331 Y57.769 E2.2193
G1 X18.527 Y57.645 E2.2333
G1 X18 Y57.528 E2.2425
G1 X17.478 Y57.383 E2.2518
G1 X16.965 Y57.212 E2.2611
G1 X16.462 Y57.013 E2.2703
G1 X15.97 Y56.789 E2.2796
G1 X15.49 Y56.54 E2.2889
G1 X14.795 Y56.118 E2.3028
G1 X14.352 Y55.808 E2.3121
G1 X13.926 Y55.475 E2.3214
G1 X13.518 Y55.12 E2.3307
G1 X13.129 Y54.744 E2.3399
G1 X12.76 Y54.348 E2.3492
G1 X12.412 Y53.934 E2.3585
G1 X11.932 Y53.279 E2.3724
G1 X11.505 Y52.589 E2.3863
G1 X11.133 Y51.868 E2.4003
G1 X10.82 Y51.119 E2.4142
G1 X10.565 Y50.349 E2.4281
G1 X10.373 Y49.56 E2.442
G1 X10.242 Y48.76 E2.4559
G1 X10.175 Y47.951 E2.4698
G1 X10.165 Y10.165 E3.1179
G0 X18.869 Y43.668 F4800
G92 E0
G1 X18.418 Y43.893 E0.0086 F1000
G1 X18.197 Y44.029 E0.0131
G1 X17.795 Y44.332 E0.0217
G1 X17.604 Y44.507 E0.0262
G1 X17.263 Y44.879 E0.0348
G1 X17.087 Y45.112 E0.0398
G1 X16.946 Y45.327 E0.0442
G1 X16.709 Y45.774 E0.0529
G1 X16.528 Y46.247 E0.0616
G1 X16.45 Y46.529 E0.0666
G1 X16.397 Y46.781 E0.071
G1 X16.341 Y47.281 E0.0797
G1 X16.335 Y47.541 E0.0841
G1 X16.375 Y48.079 E0.0934
G1 X16.419 Y48.335 E0.0978
G1 X16.551 Y48.823 E0.1065
G1 X16.741 Y49.295 E0.1152
G1 X16.986 Y49.736 E0.1239
G1 X17.048 Y49.83 E0.1258
G1 X17.198 Y50.039 E0.1302
G1 X17.53 Y50.421 E0.1389
G1 X17.907 Y50.759 E0.1476
G1 X18.113 Y50.913 E0.152
G1 X18.327 Y51.054 E0.1564
G1 X18.774 Y51.291 E0.1651
G1 X19.247 Y51.472 E0.1738
G1 X19.529 Y51.55 E0.1788
G1 X19.781 Y51.603 E0.1832
G1 X20.284 Y51.66 E0.1919
G1 X20.826 Y51.652 E0.2012
G1 X21.084 Y51.624 E0.2056
G1 X21.577 Y51.523 E0.2142
G1 X21.826 Y51.449 E0.2187
G1 X22.295 Y51.259 E0.2274
G1 X22.74 Y51.012 E0.2361
G1 X23.149 Y50.714 E0.2448
G1 X23.342 Y50.545 E0.2492
G1 X23.525 Y50.364 E0.2536
G1 X23.871 Y49.947 E0.2629
G1 X24.143 Y49.52 E0.2716
G1 X24.26 Y49.291 E0.276
G1 X24.377 Y49.023 E0.281
G1 X24.533 Y48.541 E0.2897
G1 X24.629 Y48.044 E0.2984
G1 X24.655 Y47.786 E0.3028
G1 X24.66 Y47.28 E0.3115
G1 X24.602 Y46.775 E0.3202
G1 X24.483 Y46.283 E0.3289
G1 X24.4 Y46.037 E0.3333
G1 X24.178 Y45.546 E0.3426
G1 X24.05 Y45.322 E0.347
G1 X23.909 Y45.107 E0.3514
G1 X23.57 Y44.685 E0.3607
G1 X23.206 Y44.333 E0.3694
G1 X23.005 Y44.172 E0.3738
G1 X22.765 Y44.005 E0.3788
G1 X22.324 Y43.755 E0.3875
G1 X21.854 Y43.561 E0.3962
G1 X21.364 Y43.425 E0.4049
G1 X20.861 Y43.35 E0.4137
G1 X20.353 Y43.337 E0.4224
G1 X19.849 Y43.386 E0.4311
G1 X19.594 Y43.435 E0.4355
G1 X19.11 Y43.574 E0.4441
G1 X18.869 Y43.668 E0.4486
G92 E0
G1 E-0.8 F400
G0 X44.658 Y44.456 F4800
G1 E0 F400
G92 E0
G1 X44.311 Y44.821 E0.0086 F1000
G1 X44.152 Y45.023 E0.013
G1 X44.005 Y45.234 E0.0174
G1 X43.756 Y45.674 E0.0261
G1 X43.563 Y46.142 E0.0348
G1 X43.486 Y46.387 E0.0392
G1 X43.425 Y46.636 E0.0436
G1 X43.351 Y47.137 E0.0523
G1 X43.337 Y47.645 E0.061
G1 X43.386 Y48.149 E0.0697
G1 X43.434 Y48.404 E0.0741
G1 X43.574 Y48.89 E0.0828
G1 X43.772 Y49.359 E0.0915
G1 X44.025 Y49.797 E0.1002
G1 X44.175 Y50.009 E0.1047
G1 X44.502 Y50.392 E0.1133
G1 X44.688 Y50.573 E0.1178
G1 X45.081 Y50.891 E0.1264
G1 X45.51 Y51.159 E0.1351
G1 X45.74 Y51.275 E0.1395
G1 X45.976 Y51.376 E0.1439
G1 X46.455 Y51.532 E0.1526
G1 X46.708 Y51.589 E0.157
G1 X47.209 Y51.655 E0.1657
G1 X47.715 Y51.66 E0.1744
G1 X47.974 Y51.638 E0.1788
G1 X48.47 Y51.551 E0.1875
G1 X48.719 Y51.483 E0.1919
G1 X48.927 Y51.413 E0.1956
G1 X49.391 Y51.211 E0.2043
G1 X49.827 Y50.954 E0.213
G1 X50.038 Y50.803 E0.2174
G1 X50.418 Y50.473 E0.2261
G1 X50.597 Y50.285 E0.2305
G1 X50.912 Y49.889 E0.2392
G1 X51.176 Y49.458 E0.2479
G1 X51.291 Y49.225 E0.2523
G1 X51.472 Y48.755 E0.261
G1 X51.542 Y48.505 E0.2654
G1 X51.634 Y48.01 E0.2741
G1 X51.657 Y47.754 E0.2785
G1 X51.665 Y47.497 E0.2829
G1 X51.634 Y46.995 E0.2915
G1 X51.595 Y46.738 E0.296
G1 X51.473 Y46.247 E0.3046
G1 X51.291 Y45.775 E0.3133
G1 X51.176 Y45.542 E0.3178
G1 X50.913 Y45.113 E0.3264
G1 X50.758 Y44.905 E0.3308
G1 X50.419 Y44.529 E0.3395
G1 X50.038 Y44.197 E0.3482
G1 X49.827 Y44.046 E0.3527
G1 X49.391 Y43.789 E0.3613
G1 X48.925 Y43.586 E0.3701
G1 X48.439 Y43.442 E0.3787
G1 X48.185 Y43.392 E0.3832
G1 X47.682 Y43.339 E0.3919
G1 X47.176 Y43.347 E0.4005
G1 X46.918 Y43.376 E0.405
G1 X46.424 Y43.476 E0.4136
G1 X46.176 Y43.551 E0.4181
G1 X45.707 Y43.74 E0.4268
G1 X45.262 Y43.987 E0.4355
G1 X44.853 Y44.284 E0.4442
G1 X44.658 Y44.456 E0.4486
G0 X47.134 Y42.688 F4800
G92 E0
G1 X46.816 Y42.723 E0.0055 F2000
G1 X46.263 Y42.835 E0.0152
G1 X45.957 Y42.928 E0.0206
G1 X45.422 Y43.144 E0.0305
G1 X44.907 Y43.429 E0.0406
G1 X44.44 Y43.768 E0.0505
G1 X44.2 Y43.979 E0.056
G1 X43.811 Y44.388 E0.0657
G1 X43.621 Y44.63 E0.071
G1 X43.446 Y44.882 E0.0762
G1 X43.162 Y45.384 E0.0861
G1 X42.941 Y45.917 E0.096
G1 X42.85 Y46.21 E0.1013
G1 X42.777 Y46.509 E0.1066
G1 X42.692 Y47.079 E0.1164
G1 X42.676 Y47.668 E0.1266
G1 X42.732 Y48.242 E0.1364
G1 X42.791 Y48.557 E0.1419
G1 X42.95 Y49.111 E0.1518
G1 X43.181 Y49.654 E0.1619
G1 X43.469 Y50.153 E0.1718
G1 X43.654 Y50.414 E0.1773
G1 X44.02 Y50.843 E0.187
G1 X44.249 Y51.066 E0.1925
G1 X44.697 Y51.429 E0.2024
G1 X45.186 Y51.735 E0.2122
G1 X45.461 Y51.873 E0.2175
G1 X45.743 Y51.995 E0.2228
G1 X46.28 Y52.169 E0.2325
G1 X46.592 Y52.239 E0.2379
G1 X47.163 Y52.315 E0.2478
G1 X47.74 Y52.32 E0.2577
G1 X48.059 Y52.293 E0.2632
G1 X48.614 Y52.195 E0.2729
G1 X48.911 Y52.114 E0.2782
G1 X49.164 Y52.03 E0.2827
G1 X49.691 Y51.8 E0.2926
G1 X50.188 Y51.508 E0.3025
G1 X50.448 Y51.321 E0.308
G1 X50.873 Y50.951 E0.3176
G1 X51.095 Y50.72 E0.3231
G1 X51.454 Y50.268 E0.333
G1 X51.755 Y49.777 E0.3429
G1 X51.896 Y49.49 E0.3484
G1 X52.099 Y48.963 E0.3581
G1 X52.185 Y48.655 E0.3636
G1 X52.288 Y48.101 E0.3732
G1 X52.316 Y47.795 E0.3785
G1 X52.326 Y47.487 E0.3838
G1 X52.291 Y46.924 E0.3934
G1 X52.243 Y46.608 E0.3989
G1 X52.103 Y46.049 E0.4088
G1 X51.896 Y45.51 E0.4187
G1 X51.755 Y45.223 E0.4242
G1 X51.46 Y44.742 E0.4339
G1 X51.269 Y44.486 E0.4394
G1 X50.883 Y44.057 E0.4492
G1 X50.448 Y43.679 E0.4591
G1 X50.188 Y43.492 E0.4646
G1 X49.691 Y43.2 E0.4745
G1 X49.151 Y42.965 E0.4846
G1 X48.598 Y42.801 E0.4945
G1 X48.284 Y42.738 E0.5
G1 X47.711 Y42.678 E0.5099
G1 X47.134 Y42.688 E0.5198
G0 X47.113 Y42.358 F4800
G92 E0
G1 X46.765 Y42.397 E0.006 F2000
G1 X46.183 Y42.515 E0.0162
